svg/misc/senior-elderly.svg

<svg width="320" height="512" viewBox="0 0 320 512" fill="none" xmlns="http://www.w3.org/2000/svg">
<path d="M240 56C240 86.9279 214.928 112 184 112C153.072 112 128 86.9279 128 56C128 25.0721 153.072 0 184 0C214.928 0 240 25.0721 240 56Z" fill="black"/>
<path d="M130.743 112.563C142.932 113.313 151.311 118.564 155.882 128.315L200.709 211.721L280.493 220.787C294.609 222.391 304.752 235.134 303.148 249.25C301.541 263.392 288.754 273.541 274.616 271.896L181 261C177 260.5 170.404 258.367 165.738 254.616C161.072 250.865 156.454 246.224 151.883 240.692C147.312 235.16 143.503 230.237 140.456 225.924C137.409 221.611 133.647 215.985 129.172 209.046C124.696 202.108 121.602 197.42 119.888 194.982L88.4638 277.12L100.462 346.88C102.176 354.569 103.033 359.82 103.033 362.633C103.033 365.446 102.271 370.415 100.748 377.542L75.3229 486.965C71.133 503.655 57.7065 512 35.0432 512C25.5208 511.812 17.8553 507.781 12.0466 499.904C6.23799 492.028 4.19068 483.214 5.9047 473.463L27.3301 359.257L9.61843 283.589C1.23874 264.836 -1.66559 245.708 0.905454 226.205C3.4765 206.702 10.5707 187.856 22.188 169.665C46.3748 132.159 73.6088 112.938 103.89 112C117.221 112 126.172 112.188 130.743 112.563Z" fill="black"/>
<path d="M264 288C233.072 288 208 313.072 208 344V382.25C208 391.087 215.163 398.25 224 398.25C232.837 398.25 240 391.087 240 382.25V344C240 330.745 250.745 320 264 320C277.255 320 288 330.745 288 344V496C288 504.837 295.163 512 304 512C312.837 512 320 504.837 320 496V344C320 313.072 294.928 288 264 288Z" fill="black"/>
</svg>

<svg width="320" height="512" viewBox="0 0 320 512" version="1.1" xmlns="http://www.w3.org/2000/svg"><path fill="currentColor" d="M264,288c-30.928,0 -56,25.072 -56,56l0,38.25c0,8.837 7.163,16 16,16c8.837,0 16,-7.163 16,-16l0,-38.25c0,-13.255 10.745,-24 24,-24c13.255,0 24,10.745 24,24l0,152c0,8.837 7.163,16 16,16c8.837,0 16,-7.163 16,-16l0,-152c0,-30.928 -25.072,-56 -56,-56Zm-133.257,-175.437c12.189,0.75 20.568,6.001 25.139,15.752l44.827,83.406l79.784,9.066c14.116,1.604 24.259,14.347 22.655,28.463c-1.607,14.142 -14.394,24.291 -28.532,22.646l-93.616,-10.896c-4,-0.5 -10.596,-2.633 -15.262,-6.384c-4.666,-3.751 -9.284,-8.392 -13.855,-13.924c-4.571,-5.532 -8.38,-10.455 -11.427,-14.768c-3.047,-4.313 -6.809,-9.939 -11.284,-16.878c-4.476,-6.938 -7.57,-11.626 -9.284,-14.064l-31.424,82.138l11.998,69.76c1.714,7.689 2.571,12.94 2.571,15.753c0,2.813 -0.762,7.782 -2.285,14.909l-25.425,109.423c-4.19,16.69 -17.617,25.035 -40.28,25.035c-9.522,-0.188 -17.188,-4.219 -22.996,-12.096c-5.809,-7.876 -7.856,-16.69 -6.142,-26.441l21.425,-114.206l-17.712,-75.668c-8.379,-18.753 -11.284,-37.881 -8.713,-57.384c2.571,-19.503 9.666,-38.349 21.283,-56.54c24.187,-37.506 51.421,-56.727 81.702,-57.665c13.331,0 22.282,0.188 26.853,0.563Zm109.257,-56.563c0,30.928 -25.072,56 -56,56c-30.928,0 -56,-25.072 -56,-56c0,-30.928 25.072,-56 56,-56c30.928,0 56,25.072 56,56Z"></path></svg>
